X: 1832
T: Sûzidil Seyir
C: Şefik Gürmeriç
O: Turkey
F: http://compmusic.upf.edu/node/140
N: suzidil--seyir--sofyan--1--sefik_gurmeric
N: makam= suzidil
N: form= seyir
N: usul= sofyan = 4/4
M: 4/4
L: 1/16
K: C ^1/4f ^g ^d 
Q: 1/4=60
%%MIDI tuningsystem comma53
e8 d2e2 =fgfe  | e6=d2 c3B A4  | z2e4=f2 g2a2 b2c'2  | \
w:   |   |   | 
b2a2 a2g2 a8  | 
w:   | 
z2b4c'2 =d'4 c'2b2  | b2a2 g2a2 b8  | \
w:   |   | 
c'6b2 a2g2 =f2e2  | d2e2 =fgfe e8  | 
w:   |   | 
z2e4^f2 =g6f2  | a_ba=g =fgfe =d4 z4  | \
w:   |   | 
z2c4=d2 e2=f2 =g2a2  | 
w:   | 
=g2=f2 e2=d2 edcB c4  | z2B4c2 =d4 e2=f2  | \
w:   |   | 
e2=d2 c2B2 BAGA B4  | 
w:   | 
z2c4B2 A4 e4  | =d2c2 B2A2 G2=F2 E4  | \
w:   |   | 
z2G4A2 G2=F2 F2E2  | D2E2 =FGFE E8  | 
w:   |   | 
|


